svg/Tango/apps/office-calendar.svg

<?xml version="1.0" encoding="UTF-8" standalone="no"?>
<!-- Created with Inkscape (http://www.inkscape.org/) -->
<svg
   xmlns:dc="http://purl.org/dc/elements/1.1/"
   xmlns:cc="http://creativecommons.org/ns#"
   xmlns:rdf="http://www.w3.org/1999/02/22-rdf-syntax-ns#"
   xmlns:svg="http://www.w3.org/2000/svg"
   xmlns="http://www.w3.org/2000/svg"
   xmlns:xlink="http://www.w3.org/1999/xlink"
   xmlns:sodipodi="http://sodipodi.sourceforge.net/DTD/sodipodi-0.dtd"
   xmlns:inkscape="http://www.inkscape.org/namespaces/inkscape"
   sodipodi:docname="office-calendar.svg"
   sodipodi:docbase="/home/jimmac/src/cvs/tango-icon-theme/scalable/apps"
   inkscape:version="0.46"
   sodipodi:version="0.32"
   id="svg1288"
   height="48px"
   width="48px"
   inkscape:output_extension="org.inkscape.output.svg.inkscape">
  <defs
     id="defs3">
    <inkscape:perspective
       sodipodi:type="inkscape:persp3d"
       inkscape:vp_x="0 : 24 : 1"
       inkscape:vp_y="0 : 1000 : 0"
       inkscape:vp_z="48 : 24 : 1"
       inkscape:persp3d-origin="24 : 16 : 1"
       id="perspective48" />
    <radialGradient
       inkscape:collect="always"
       xlink:href="#linearGradient5060"
       id="radialGradient6719"
       gradientUnits="userSpaceOnUse"
       gradientTransform="matrix(-2.774389,0,0,1.969706,112.7623,-872.8854)"
       cx="605.71429"
       cy="486.64789"
       fx="605.71429"
       fy="486.64789"
       r="117.14286" />
    <linearGradient
       inkscape:collect="always"
       id="linearGradient5060">
      <stop
         style="stop-color:black;stop-opacity:1;"
         offset="0"
         id="stop5062" />
      <stop
         style="stop-color:black;stop-opacity:0;"
         offset="1"
         id="stop5064" />
    </linearGradient>
    <radialGradient
       inkscape:collect="always"
       xlink:href="#linearGradient5060"
       id="radialGradient6717"
       gradientUnits="userSpaceOnUse"
       gradientTransform="matrix(2.774389,0,0,1.969706,-1891.633,-872.8854)"
       cx="605.71429"
       cy="486.64789"
       fx="605.71429"
       fy="486.64789"
       r="117.14286" />
    <linearGradient
       id="linearGradient5048">
      <stop
         style="stop-color:black;stop-opacity:0;"
         offset="0"
         id="stop5050" />
      <stop
         id="stop5056"
         offset="0.5"
         style="stop-color:black;stop-opacity:1;" />
      <stop
         style="stop-color:black;stop-opacity:0;"
         offset="1"
         id="stop5052" />
    </linearGradient>
    <linearGradient
       inkscape:collect="always"
       xlink:href="#linearGradient5048"
       id="linearGradient6715"
       gradientUnits="userSpaceOnUse"
       gradientTransform="matrix(2.774389,0,0,1.969706,-1892.179,-872.8854)"
       x1="302.85715"
       y1="366.64789"
       x2="302.85715"
       y2="609.50507" />
    <linearGradient
       id="linearGradient2563">
      <stop
         id="stop2565"
         offset="0"
         style="stop-color:#e2e2e2;stop-opacity:1;" />
      <stop
         id="stop2567"
         offset="1.0000000"
         style="stop-color:#9f9f9f;stop-opacity:1.0000000;" />
    </linearGradient>
    <linearGradient
       id="linearGradient2551"
       inkscape:collect="always">
      <stop
         id="stop2553"
         offset="0"
         style="stop-color:#000000;stop-opacity:1;" />
      <stop
         id="stop2555"
         offset="1"
         style="stop-color:#000000;stop-opacity:0;" />
    </linearGradient>
    <linearGradient
       id="linearGradient2526">
      <stop
         id="stop2528"
         offset="0.0000000"
         style="stop-color:#e7ebeb;stop-opacity:1.0000000;" />
      <stop
         style="stop-color:#e6ebeb;stop-opacity:1.0000000;"
         offset="0.50000000"
         id="stop2534" />
      <stop
         id="stop2530"
         offset="1.0000000"
         style="stop-color:#ffffff;stop-opacity:1.0000000;" />
    </linearGradient>
    <linearGradient
       gradientTransform="translate(0.000000,0.785718)"
       gradientUnits="userSpaceOnUse"
       y2="28.428572"
       x2="42.214283"
       y1="14.428571"
       x1="13.357142"
       id="linearGradient2532"
       xlink:href="#linearGradient2526"
       inkscape:collect="always" />
    <radialGradient
       gradientUnits="userSpaceOnUse"
       gradientTransform="matrix(1.000000,0.000000,0.000000,0.751938,1.196962e-16,7.193799)"
       r="18.428572"
       fy="29.000000"
       fx="26.000000"
       cy="29.000000"
       cx="26.000000"
       id="radialGradient2557"
       xlink:href="#linearGradient2551"
       inkscape:collect="always" />
    <linearGradient
       gradientTransform="translate(0.000000,0.785718)"
       gradientUnits="userSpaceOnUse"
       y2="30.785713"
       x2="42.214284"
       y1="30.785713"
       x1="6.7857148"
       id="linearGradient2569"
       xlink:href="#linearGradient2563"
       inkscape:collect="always" />
    <linearGradient
       y2="28.428572"
       x2="42.214283"
       y1="14.428571"
       x1="13.357142"
       gradientTransform="translate(2.045771e-15,0.785718)"
       gradientUnits="userSpaceOnUse"
       id="linearGradient2582"
       xlink:href="#linearGradient2526"
       inkscape:collect="always" />
  </defs>
  <sodipodi:namedview
     inkscape:window-y="147"
     inkscape:window-x="562"
     inkscape:window-height="701"
     inkscape:window-width="872"
     inkscape:document-units="px"
     inkscape:grid-bbox="true"
     showgrid="false"
     inkscape:current-layer="layer1"
     inkscape:cy="24.165113"
     inkscape:cx="-136.63043"
     inkscape:zoom="1"
     inkscape:pageshadow="2"
     inkscape:pageopacity="0.0"
     borderopacity="1.0"
     bordercolor="#666666"
     pagecolor="#ffffff"
     id="base" />
  <metadata
     id="metadata4">
    <rdf:RDF>
      <cc:Work
         rdf:about="">
        <dc:format>image/svg+xml</dc:format>
        <dc:type
           rdf:resource="http://purl.org/dc/dcmitype/StillImage" />
        <dc:title>Calendar</dc:title>
        <dc:creator>
          <cc:Agent>
            <dc:title>Jakub Steiner</dc:title>
          </cc:Agent>
        </dc:creator>
        <dc:source>http://jimmac.musichall.cz</dc:source>
        <dc:subject>
          <rdf:Bag>
            <rdf:li>calendar</rdf:li>
            <rdf:li>date</rdf:li>
            <rdf:li>time</rdf:li>
            <rdf:li>cal</rdf:li>
          </rdf:Bag>
        </dc:subject>
        <cc:license
           rdf:resource="http://creativecommons.org/licenses/publicdomain/" />
      </cc:Work>
      <cc:License
         rdf:about="http://creativecommons.org/licenses/publicdomain/">
        <cc:permits
           rdf:resource="http://creativecommons.org/ns#Reproduction" />
        <cc:permits
           rdf:resource="http://creativecommons.org/ns#Distribution" />
        <cc:permits
           rdf:resource="http://creativecommons.org/ns#DerivativeWorks" />
      </cc:License>
    </rdf:RDF>
  </metadata>
  <g
     inkscape:groupmode="layer"
     inkscape:label="Layer 1"
     id="layer1">
    <g
       transform="matrix(2.294847e-2,0,0,2.276812e-2,44.75587,36.74254)"
       id="g6707">
      <rect
         style="opacity:0.40206185;color:black;fill:url(#linearGradient6715);fill-opacity:1;fill-rule:nonzero;stroke:none;stroke-width:1;stroke-linecap:round;stroke-linejoin:miter;marker:none;marker-start:none;marker-mid:none;marker-end:none;stroke-miterlimit:4;stroke-dasharray:none;stroke-dashoffset:0;stroke-opacity:1;visibility:visible;display:inline;overflow:visible"
         id="rect6709"
         width="1339.6335"
         height="478.35718"
         x="-1559.2523"
         y="-150.69685" />
      <path
         style="opacity:0.40206185;color:black;fill:url(#radialGradient6717);fill-opacity:1;fill-rule:nonzero;stroke:none;stroke-width:1;stroke-linecap:round;stroke-linejoin:miter;marker:none;marker-start:none;marker-mid:none;marker-end:none;stroke-miterlimit:4;stroke-dasharray:none;stroke-dashoffset:0;stroke-opacity:1;visibility:visible;display:inline;overflow:visible"
         d="M -219.61876,-150.68038 C -219.61876,-150.68038 -219.61876,327.65041 -219.61876,327.65041 C -76.744594,328.55086 125.78146,220.48075 125.78138,88.454235 C 125.78138,-43.572302 -33.655436,-150.68036 -219.61876,-150.68038 z "
         id="path6711"
         sodipodi:nodetypes="cccc" />
      <path
         sodipodi:nodetypes="cccc"
         id="path6713"
         d="M -1559.2523,-150.68038 C -1559.2523,-150.68038 -1559.2523,327.65041 -1559.2523,327.65041 C -1702.1265,328.55086 -1904.6525,220.48075 -1904.6525,88.454235 C -1904.6525,-43.572302 -1745.2157,-150.68036 -1559.2523,-150.68038 z "
         style="opacity:0.40206185;color:black;fill:url(#radialGradient6719);fill-opacity:1;fill-rule:nonzero;stroke:none;stroke-width:1;stroke-linecap:round;stroke-linejoin:miter;marker:none;marker-start:none;marker-mid:none;marker-end:none;stroke-miterlimit:4;stroke-dasharray:none;stroke-dashoffset:0;stroke-opacity:1;visibility:visible;display:inline;overflow:visible" />
    </g>
    <path
       sodipodi:nodetypes="ccccccc"
       id="path1316"
       d="M 4.8571430,38.428571 C 4.6428572,39.428571 5.4642859,40.464285 6.8214287,40.428571 L 43.000000,40.428571 C 44.285714,40.392857 44.714286,39.214285 44.428572,38.249999 L 36.571429,9.4285713 L 10.571429,9.4285713 L 4.8571430,38.428571 z "
       style="fill:#a7a7a7;fill-opacity:1.0000000;fill-rule:evenodd;stroke:#656565;stroke-width:1.0000000px;stroke-linecap:butt;stroke-linejoin:miter;stroke-opacity:1.0000000" />
    <path
       sodipodi:nodetypes="ccccccccc"
       id="path2575"
       d="M 9.1625040,30.806458 L 39.395095,30.806458 C 40.252297,30.806458 40.942392,31.478744 40.942392,32.313825 L 42.269580,37.114760 C 42.269580,37.949841 41.579486,38.622127 40.722283,38.622127 L 8.2777114,38.622127 C 7.4205088,38.622127 6.7304142,37.949841 6.7304142,37.114760 L 7.6152068,32.313825 C 7.6152068,31.478744 8.3053014,30.806458 9.1625040,30.806458 z "
       style="opacity:0.10857142;color:#000000;fill:#000000;fill-opacity:1.0000000;fill-rule:evenodd;stroke:#000000;stroke-width:0.99999958;stroke-linecap:butt;stroke-linejoin:miter;marker:none;marker-start:none;marker-mid:none;marker-end:none;stroke-miterlimit:4.0000000;stroke-dasharray:none;stroke-dashoffset:0.0000000;stroke-opacity:1.0000000;visibility:visible;display:inline;overflow:visible;font-family:Bitstream Vera Sans" />
    <path
       style="fill:none;fill-opacity:1.0000000;fill-rule:evenodd;stroke:#ffffff;stroke-width:0.99999970px;stroke-linecap:butt;stroke-linejoin:miter;stroke-opacity:0.34463277"
       d="M 6.0478436,37.805569 C 5.8479823,38.738255 5.6491963,39.385227 6.5227626,39.385227 L 42.837439,39.385227 C 43.753496,39.385227 43.579187,38.645537 43.312705,37.746161 L 35.770172,10.471961 L 11.520336,10.471961 L 6.0478436,37.805569 z "
       id="path2520"
       sodipodi:nodetypes="ccccccc" />
    <path
       style="opacity:1.0000000;color:#000000;fill:#c5c5c5;fill-opacity:1.0000000;fill-rule:evenodd;stroke:#696969;stroke-width:0.99999964;stroke-linecap:butt;stroke-linejoin:miter;marker:none;marker-start:none;marker-mid:none;marker-end:none;stroke-miterlimit:4.0000000;stroke-dasharray:none;stroke-dashoffset:0.0000000;stroke-opacity:1.0000000;visibility:visible;display:inline;overflow:visible;font-family:Bitstream Vera Sans"
       d="M 9.6418018,29.928574 L 38.929626,29.928574 C 39.760041,29.928574 40.428570,30.579851 40.428570,31.388835 L 41.714284,36.039742 C 41.714284,36.848726 41.045755,37.500003 40.215340,37.500003 L 8.7846589,37.500003 C 7.9542438,37.500003 7.2857146,36.848726 7.2857146,36.039742 L 8.1428575,31.388835 C 8.1428575,30.579851 8.8113867,29.928574 9.6418018,29.928574 z "
       id="path2518"
       sodipodi:nodetypes="ccccccccc" />
    <path
       sodipodi:nodetypes="ccccccccc"
       id="rect2225"
       d="M 9.6418018,27.785717 L 38.929626,27.785717 C 39.760041,27.785717 40.428570,28.436994 40.428570,29.245978 L 41.714284,33.896885 C 41.714284,34.705869 41.045755,35.357146 40.215340,35.357146 L 8.7846589,35.357146 C 7.9542438,35.357146 7.2857146,34.705869 7.2857146,33.896885 L 8.1428575,29.245978 C 8.1428575,28.436994 8.8113867,27.785717 9.6418018,27.785717 z "
       style="color:#000000;fill:url(#linearGradient2569);fill-opacity:1.0000000;fill-rule:evenodd;stroke:#696969;stroke-width:0.99999964;stroke-linecap:butt;stroke-linejoin:miter;marker:none;marker-start:none;marker-mid:none;marker-end:none;stroke-miterlimit:4.0000000;stroke-dashoffset:0.0000000;stroke-opacity:1.0000000;visibility:visible;display:inline;overflow:visible" />
    <g
       transform="matrix(0.942549,0.000000,0.000000,0.942549,-0.222619,1.855860)"
       id="g2578">
      <path
         style="fill:url(#linearGradient2582);fill-opacity:1.0000000;fill-rule:evenodd;stroke:#696969;stroke-width:1.0609524px;stroke-linecap:butt;stroke-linejoin:miter;stroke-opacity:1.0000000"
         d="M 10.891973,11.500004 L 6.5714281,33.214290 C 6.5714281,33.214290 32.857143,33.214291 32.857143,33.214291 C 45.441975,33.214291 48.085306,29.214290 48.085306,29.214290 C 48.085306,29.214290 44.728164,28.035719 43.299593,23.071433 C 43.299593,23.071433 40.238640,11.500004 40.238640,11.500004 L 10.891973,11.500004 z "
         id="path2524"
         sodipodi:nodetypes="cczczcc" />
      <path
         sodipodi:nodetypes="cccczcc"
         id="path2571"
         d="M 11.803734,12.474609 L 7.8122567,32.239668 C 7.8122567,32.239668 24.956518,32.239669 32.238382,32.239669 C 43.465021,32.239669 46.348811,29.388804 46.348811,29.388804 C 46.348811,29.388804 43.355751,27.525962 42.055419,23.007305 C 42.055419,23.007305 39.316856,12.546038 39.316856,12.546038 L 11.803734,12.474609 z "
         style="fill:none;fill-opacity:1.0000000;fill-rule:evenodd;stroke:#ffffff;stroke-width:1.0609519px;stroke-linecap:butt;stroke-linejoin:miter;stroke-opacity:1.0000000" />
    </g>
    <path
       sodipodi:nodetypes="ccccccccc"
       id="rect2522"
       d="M 11.315699,7.4285707 L 36.494515,7.4285707 C 37.367632,7.4285707 38.070539,8.0973414 38.070539,8.9280566 L 38.427682,11.071942 C 38.427682,11.902657 37.724775,12.571428 36.851658,12.571428 L 10.958556,12.571428 C 10.085439,12.571428 9.3825323,11.902657 9.3825323,11.071942 L 9.7396752,8.9280566 C 9.7396752,8.0973414 10.442582,7.4285707 11.315699,7.4285707 z "
       style="color:#000000;fill:#9b9b9b;fill-opacity:1.0000000;fill-rule:evenodd;stroke:#696969;stroke-width:0.99999952;stroke-linecap:butt;stroke-linejoin:miter;stroke-miterlimit:4.0000000;stroke-dashoffset:0.0000000;stroke-opacity:1.0000000;marker:none;marker-start:none;marker-mid:none;marker-end:none;visibility:visible;display:inline;overflow:visible" />
    <path
       id="text2541"
       d="M 20.969159,22.393020 C 21.957574,22.486777 22.691543,22.765423 23.171063,23.228961 C 23.651181,23.687301 23.849054,24.273239 23.764680,24.986779 C 23.640870,26.033659 23.075908,26.877412 22.069796,27.518037 C 21.063667,28.158665 19.762256,28.478977 18.165559,28.478978 C 16.939741,28.478977 15.906445,28.286269 15.065668,27.900851 L 15.305880,25.869594 C 16.189321,26.478973 17.193659,26.783661 18.318897,26.783660 C 19.217824,26.783661 19.926554,26.637828 20.445092,26.346159 C 20.964233,26.049284 21.255527,25.632617 21.318975,25.096154 C 21.385488,24.533656 21.176411,24.122197 20.691744,23.861775 C 20.207063,23.601362 19.398966,23.471154 18.267450,23.471149 L 16.994488,23.471149 L 17.201440,21.721144 L 18.559266,21.721144 C 19.451905,21.721150 20.149975,21.585733 20.653477,21.314892 C 21.157582,21.038857 21.439509,20.648231 21.499262,20.143013 C 21.555304,19.669062 21.408536,19.288853 21.058960,19.002385 C 20.709369,18.715935 20.154261,18.572705 19.393634,18.572696 C 18.431836,18.572705 17.490216,18.853956 16.568772,19.416448 L 16.798822,17.471130 C 17.831208,17.033639 18.988597,16.814889 20.270993,16.814878 C 21.509374,16.814889 22.459536,17.072702 23.121484,17.588317 C 23.789700,18.103954 24.076386,18.762810 23.981543,19.564886 C 23.893455,20.309689 23.598230,20.919065 23.095869,21.393017 C 22.594104,21.861775 21.885201,22.195109 20.969159,22.393020"
       style="font-size:17.577877;font-style:normal;font-variant:normal;font-weight:bold;font-stretch:normal;line-height:100.00000%;writing-mode:lr-tb;text-anchor:start;fill:#000000;fill-opacity:1.0000000;stroke:none;stroke-width:1.0000000px;stroke-linecap:butt;stroke-linejoin:miter;stroke-opacity:1.0000000;font-family:Segoe" />
    <path
       id="text2545"
       d="M 33.007379,28.455540 L 30.499173,28.455540 L 29.387875,19.096134 L 26.295373,19.893012 L 26.086657,18.135194 L 31.627997,16.838314 L 33.007379,28.455540"
       style="font-size:17.577877;font-style:normal;font-variant:normal;font-weight:bold;font-stretch:normal;line-height:100.00000%;writing-mode:lr-tb;text-anchor:start;fill:#000000;fill-opacity:1.0000000;stroke:none;stroke-width:1.0000000px;stroke-linecap:butt;stroke-linejoin:miter;stroke-opacity:1.0000000;font-family:Segoe" />
    <path
       transform="matrix(0.684211,0.000000,0.000000,0.684211,3.560154,2.278197)"
       d="M 12.857143 9.9285717 A 1.3571428 1.3571428 0 1 1  10.142857,9.9285717 A 1.3571428 1.3571428 0 1 1  12.857143 9.9285717 z"
       sodipodi:ry="1.3571428"
       sodipodi:rx="1.3571428"
       sodipodi:cy="9.9285717"
       sodipodi:cx="11.500000"
       id="path2559"
       style="opacity:0.52571428;color:#000000;fill:#fefefe;fill-opacity:1.0000000;fill-rule:evenodd;stroke:none;stroke-width:0.99999964;stroke-linecap:butt;stroke-linejoin:miter;marker:none;marker-start:none;marker-mid:none;marker-end:none;stroke-miterlimit:4.0000000;stroke-dasharray:none;stroke-dashoffset:0.0000000;stroke-opacity:1.0000000;visibility:visible;display:inline;overflow:visible"
       sodipodi:type="arc" />
    <path
       sodipodi:nodetypes="cc"
       id="path2561"
       d="M 13.042053,8.6010151 L 36.371309,8.6010151"
       style="opacity:0.30285713;fill:none;fill-opacity:0.75000000;fill-rule:evenodd;stroke:#ffffff;stroke-width:1.0000001px;stroke-linecap:round;stroke-linejoin:miter;stroke-opacity:1.0000000" />
  </g>
</svg>

<svg xmlns="http://www.w3.org/2000/svg" xmlns:xlink="http://www.w3.org/1999/xlink" viewBox="0 0 48 48"><defs><linearGradient gradientUnits="userSpaceOnUse" x2="42.21" x1="6.786" id="4"><stop stop-color="#e2e2e2"/><stop offset="1" stop-color="#9f9f9f"/></linearGradient><linearGradient id="3" gradientUnits="userSpaceOnUse" gradientTransform="matrix(2.77439 0 0 1.96971-1892.18-872.89)" y1="366.65" x2="0" y2="609.51"><stop stop-opacity="0"/><stop offset=".5"/><stop offset="1" stop-opacity="0"/></linearGradient><linearGradient y2="29.21" x2="42.21" y1="15.214" x1="13.357" gradientUnits="userSpaceOnUse" id="5"><stop stop-color="#e7ebeb"/><stop offset=".5" stop-color="#e6ebeb"/><stop offset="1" stop-color="#fff"/></linearGradient><linearGradient id="1"><stop/><stop offset="1" stop-opacity="0"/></linearGradient><radialGradient xlink:href="#1" id="2" gradientUnits="userSpaceOnUse" gradientTransform="matrix(2.77439 0 0 1.96971-1891.63-872.89)" cx="605.71" cy="486.65" r="117.14"/><radialGradient xlink:href="#1" id="0" gradientUnits="userSpaceOnUse" gradientTransform="matrix(-2.77439 0 0 1.96971 112.76-872.89)" cx="605.71" cy="486.65" r="117.14"/></defs><g transform="matrix(.02295 0 0 .02277 44.756 36.743)" color="#000"><path opacity=".402" fill="url(#3)" d="m-1559.25-150.7h1339.63v478.36h-1339.63z"/><path d="m-219.62-150.68c0 0 0 478.33 0 478.33 142.87.9 345.4-107.17 345.4-239.2 0-132.03-159.44-239.13-345.4-239.13" opacity=".402" fill="url(#2)"/><path d="m-1559.25-150.68c0 0 0 478.33 0 478.33-142.87.9-345.4-107.17-345.4-239.2 0-132.03 159.44-239.13 345.4-239.13" opacity=".402" fill="url(#0)"/></g><g fill-rule="evenodd"><path d="m4.857 38.429c-.214 1 .607 2.036 1.964 2h36.18c1.286-.036 1.714-1.214 1.429-2.179l-7.857-28.821h-26l-5.714 29z" fill="#a7a7a7" stroke="#656565"/><path d="m9.163 30.806h30.23c.857 0 1.547.672 1.547 1.507l1.327 4.801c0 .835-.69 1.507-1.547 1.507h-32.445c-.857 0-1.547-.672-1.547-1.507l.885-4.801c0-.835.69-1.507 1.547-1.507z" opacity=".109" color="#000" stroke="#000"/><path d="m6.05 37.806c-.2.933-.399 1.58.475 1.58h36.31c.916 0 .742-.74.475-1.639l-7.543-27.27h-24.25l-5.472 27.334z" stroke-opacity=".345" fill="none" stroke="#fff"/><g stroke="#696969" color="#000"><path d="m9.642 29.929h29.29c.83 0 1.499.651 1.499 1.46l1.286 4.651c0 .809-.669 1.46-1.499 1.46h-31.431c-.83 0-1.499-.651-1.499-1.46l.857-4.651c0-.809.669-1.46 1.499-1.46z" fill="#c5c5c5"/><path d="m9.642 27.786h29.29c.83 0 1.499.651 1.499 1.46l1.286 4.651c0 .809-.669 1.46-1.499 1.46h-31.431c-.83 0-1.499-.651-1.499-1.46l.857-4.651c0-.809.669-1.46 1.499-1.46z" fill="url(#4)"/></g><g transform="matrix(.94255 0 0 .94255-.223 1.856)" stroke-width="1.061"><path d="m10.892 11.5l-4.321 21.714c0 0 26.29 0 26.29 0 12.585 0 15.228-4 15.228-4 0 0-3.357-1.179-4.786-6.143 0 0-3.061-11.571-3.061-11.571h-29.347z" fill="url(#5)" stroke="#696969"/><path d="m11.804 12.475l-3.991 19.765c0 0 17.14 0 24.426 0 11.227 0 14.11-2.851 14.11-2.851 0 0-2.993-1.863-4.293-6.381 0 0-2.739-10.461-2.739-10.461l-27.513-.071z" fill="none" stroke="#fff"/></g><path d="m11.316 7.429h25.18c.873 0 1.576.669 1.576 1.499l.357 2.144c0 .831-.703 1.499-1.576 1.499h-25.893c-.873 0-1.576-.669-1.576-1.499l.357-2.144c0-.831.703-1.499 1.576-1.499z" color="#000" fill="#9b9b9b" stroke="#696969"/></g><path d="m20.969 22.393c.988.094 1.722.372 2.202.836.48.458.678 1.044.594 1.758-.124 1.047-.689 1.891-1.695 2.531-1.01.641-2.308.961-3.904.961-1.226 0-2.259-.193-3.1-.578l.24-2.031c.883.609 1.888.914 3.01.914.899 0 1.608-.146 2.126-.438.519-.297.81-.714.874-1.25.067-.562-.143-.974-.627-1.234-.485-.26-1.293-.391-2.424-.391h-1.273l.207-1.75h1.358c.893 0 1.591-.135 2.094-.406.504-.276.786-.667.846-1.172.056-.474-.091-.854-.44-1.141-.35-.286-.905-.43-1.665-.43-.962 0-1.903.281-2.825.844l.23-1.945c1.032-.437 2.19-.656 3.472-.656 1.238 0 2.189.258 2.85.773.668.516.955 1.174.86 1.977-.088.745-.383 1.354-.886 1.828-.502.469-1.211.802-2.127 1"/><path d="m33.01 28.456h-2.508l-1.111-9.359-3.093.797-.209-1.758 5.541-1.297 1.379 11.617"/><g fill-rule="evenodd"><path transform="matrix(.68421 0 0 .68421 3.56 2.278)" d="M12.857143 9.928572A1.357143 1.357143 0 1 1 10.142857 9.928572 1.357143 1.357143 0 1 1 12.857143 9.928572" opacity=".526" color="#000" fill="#fefefe"/><path d="m13.04 8.601h23.329" opacity=".303" fill="none" stroke="#fff" fill-opacity=".75" stroke-linecap="round"/></g></svg>
